!! 00000] TT[WS
!!!OTL: Kelian guanggur mei laopuo
!!!ARE: Asia, China, Shanxi Hequ
!! Ethnic Group: Han
!! WII, 4
!!!SCT: J0406
!!!YEM: Copyright 1995, estate of Helmut Schaffrath.
**kern
*ICvox
*Ivox
*M2/4
*k[]
*C:
{8dd
4d
8dd
=1
8.dd
16ee
8dd
8cc
=2
8dd
4d
8dd
=3
2cc}
=4
{8dd
4d
8dd
=5
8.dd
16ee
8dd
8cc
=6
8cc
8a
8f
16g
16f
=7
2d}
==
!!!AGN: Shange, Shanqu. Qingge, Aisu
!!!ONB: ESAC (Essen Associative Code) Database: CHINA
!!!AMT: simple duple
!!!AIN: vox
!!!EED: Helmut Schaffrath
!!!EEV: 1.0
*-
